Numix-GalliumOS/48/mimetypes/application-presentation-template.svg

<?xml version="1.0" encoding="UTF-8" standalone="no"?>
<svg
   xmlns:dc="http://purl.org/dc/elements/1.1/"
   xmlns:cc="http://creativecommons.org/ns#"
   xmlns:rdf="http://www.w3.org/1999/02/22-rdf-syntax-ns#"
   xmlns:svg="http://www.w3.org/2000/svg"
   xmlns="http://www.w3.org/2000/svg"
   xmlns:sodipodi="http://sodipodi.sourceforge.net/DTD/sodipodi-0.dtd"
   xmlns:inkscape="http://www.inkscape.org/namespaces/inkscape"
   width="48"
   viewBox="0 0 48 48"
   height="48"
   id="svg3007"
   version="1.1"
   inkscape:version="0.48.5 r10040"
   sodipodi:docname="application-presentation-template.svg">
  <metadata
     id="metadata3031">
    <rdf:RDF>
      <cc:Work
         rdf:about="">
        <dc:format>image/svg+xml</dc:format>
        <dc:type
           rdf:resource="http://purl.org/dc/dcmitype/StillImage" />
      </cc:Work>
    </rdf:RDF>
  </metadata>
  <defs
     id="defs3029" />
  <sodipodi:namedview
     pagecolor="#ffffff"
     bordercolor="#666666"
     borderopacity="1"
     objecttolerance="10"
     gridtolerance="10"
     guidetolerance="10"
     inkscape:pageopacity="0"
     inkscape:pageshadow="2"
     inkscape:window-width="1280"
     inkscape:window-height="970"
     id="namedview3027"
     showgrid="true"
     inkscape:zoom="19.666667"
     inkscape:cx="41.72558"
     inkscape:cy="24.336244"
     inkscape:window-x="0"
     inkscape:window-y="0"
     inkscape:window-maximized="1"
     inkscape:current-layer="svg3007">
    <inkscape:grid
       type="xygrid"
       id="grid3033" />
  </sodipodi:namedview>
  <path
     style="fill:#d24726"
     d="M 8 1 C 6.9714285 1 6 1.9714285 6 3 L 6 14 L 6 45 C 6 45.971429 7.0285714 47 8 47 L 40 47 C 40.971429 47 42 45.971429 42 45 L 42 14 L 42 3 C 42 1.9714285 41.028571 1 40 1 L 29 1 L 19 1 L 8 1 z "
     id="path3009" />
  <path
     style="fill:#ffffff"
     d="m 11.999997,14.999985 6.99999,0 0,5.000005 -6.99999,0 z"
     id="path3015"
     inkscape:connector-curvature="0" />
  <path
     style="fill:#ffffff"
     d="m 11.999997,22.999994 6.99999,0 0,5.000006 -6.99999,0 z"
     id="path3017"
     inkscape:connector-curvature="0" />
  <path
     style="fill:#ffffff"
     d="m 11.999997,31.000003 23.999964,0 0,2.000003 -23.999964,0 z"
     id="path3019"
     inkscape:connector-curvature="0" />
  <path
     style="fill:#ffffff"
     d="M 30,14.999985 30,21 l 5.999959,0 c 0,-3.313717 -2.686278,-6.000015 -5.999959,-6.000015 z"
     id="path3023"
     inkscape:connector-curvature="0" />
  <path
     style="fill:#ffffff"
     d="m 29,16 c -4,0 -7,2.910147 -7,6.5 0,3.589852 2.910148,6.5 6.499999,6.5 C 32.089851,29 35,26 35,22 l -6,0 z"
     id="path3025"
     inkscape:connector-curvature="0"
     sodipodi:nodetypes="cssccc" />
</svg>

<svg xmlns="http://www.w3.org/2000/svg" viewBox="0 0 48 48">
 <path d="m 8 1 c -1.029 0 -2 0.971 -2 2 l 0 11 l 0 31 c 0 0.971 1.029 2 2 2 l 32 0 c 0.971 0 2 -1.029 2 -2 l 0 -31 l 0 -11 c 0 -1.029 -0.971 -2 -2 -2 l -11 0 l -10 0 l -11 0 z" style="fill:#d24726"/>
 <path d="m 12 15 7 0 0 5 -7 0 z" style="fill:#fff"/>
 <path d="m 12 23 7 0 0 5 -7 0 z" style="fill:#fff"/>
 <path d="m 12 31 24 0 0 2 -24 0 z" style="fill:#fff"/>
 <path d="m 30 15 0 6 l 6 0 c 0 -3.314 -2.686 -6 -6 -6 z" style="fill:#fff"/>
 <path d="m 29 16 c -4 0 -7 2.91 -7 6.5 0 3.59 2.91 6.5 6.5 6.5 c 3.59 0 6.5 -3 6.5 -7 l -6 0 z" style="fill:#fff"/>
</svg>
